X:93
T:Captain George Hunter
R:Strathspey
B:The Athole Collection
M:C|
L:1/8
K:B Minor
Fc e>cB>A|Fc e>c B2|Fc d>ef>d|c<A e>c f/e/d/c/ B2:|
|:d/e/f/g/ a>f (3efd (3cBA|d/e/f/g/ a>f d>f a2|(3gbg (3faf (3efd (3cBA|
Fc d>c B2:|
